X: 731
T: Daduan lianluo
L: 1/8
M: 2/4
K: G
d2d2 [I:setbarnb 1]| 
e d B A | 
G F E G | 
A4 | 
d2d2 | 
e d B A | 
G F E G | 
A4 | 
A Bd2 | 
e d B A | 
G2d2 | 
G2F E | 
D D D E | 
F2A E | 
D4 | 
A B A G | 
F2E2 | 
D D D E | 
F2A E | 
D4 |]

@@@ Tune index: 9605
